; generated by Slic3r 0.7.2b on 2012-05-12 at 00:31:37

; layer_height = 0.4
; perimeters = 3
; solid_layers = 3
; fill_density = 0.4
; nozzle_diameter = 0.5
; filament_diameter = 3
; extrusion_multiplier = 1
; perimeter_speed = 30
; infill_speed = 60
; travel_speed = 130
; extrusion_width_ratio = 0
; scale = 1
; single wall width = 0.53mm

M104 S200 ; set temperature
G28 ; home all axes
M109 S200 ; wait for temperature to be reached
G90 ; use absolute coordinates
G21 ; set units to millimeters
G92 E0 ; reset extrusion distance
M82 ; use absolute distances for extrusion
G1 Z0.400 F7800.000
G1 X83.670 Y82.799
G1 F1800.000 E1.00000
G1 X84.020 Y82.439 F540.000 E1.01476
G1 X84.400 Y82.119 E1.02937
G1 X87.810 Y79.639 E1.15336
G1 X88.240 Y79.379 E1.16813
G1 X92.530 Y77.459 E1.30634
G1 X93.260 Y77.259 E1.32860
G1 X97.140 Y76.439 E1.44521
G1 X97.640 Y76.379 E1.46002
G1 X98.140 Y76.359 E1.47473
G1 X102.350 Y76.379 E1.59853
G1 X102.850 Y76.439 E1.61334
G1 X106.970 Y77.319 E1.73722
G1 X107.460 Y77.459 E1.75221
G1 X111.750 Y79.379 E1.89041
G1 X112.180 Y79.639 E1.90519
G1 X115.590 Y82.119 E2.02918
G1 X115.970 Y82.439 E2.04378
G1 X118.960 Y85.739 E2.17473
G1 X119.120 Y85.939 E2.18226
G1 X119.530 Y86.559 E2.20412
G1 X121.630 Y90.219 E2.32820
G1 X121.830 Y90.689 E2.34322
G1 X123.120 Y94.699 E2.46708
G1 X123.280 Y95.429 E2.48906
G1 X123.720 Y99.619 E2.61295
G1 X123.730 Y100.129 E2.62795
G1 X123.280 Y104.559 E2.75888
G1 X123.120 Y105.289 E2.78086
G1 X121.830 Y109.299 E2.90472
G1 X121.630 Y109.769 E2.91974
G1 X119.270 Y113.849 E3.05834
G1 X118.970 Y114.239 E3.07281
G1 X115.970 Y117.549 E3.20417
G1 X115.590 Y117.879 E3.21897
G1 X112.180 Y120.359 E3.34296
G1 X111.750 Y120.619 E3.35773
G1 X111.520 Y120.739 E3.36536
G1 X107.690 Y122.439 E3.48858
G1 X107.450 Y122.529 E3.49612
G1 X106.740 Y122.729 E3.51781
G1 X103.110 Y123.509 E3.62698
G1 X102.360 Y123.619 E3.64927
G1 X101.850 Y123.639 E3.66428
G1 X97.630 Y123.619 E3.78837
G1 X96.880 Y123.509 E3.81066
G1 X93.010 Y122.669 E3.92711
G1 X92.540 Y122.529 E3.94153
G1 X92.300 Y122.439 E3.94907
G1 X88.470 Y120.739 E4.07229
G1 X88.240 Y120.619 E4.07992
G1 X87.810 Y120.359 E4.09469
G1 X84.400 Y117.879 E4.21868
G1 X84.020 Y117.549 E4.23348
G1 X81.020 Y114.239 E4.36484
G1 X80.720 Y113.849 E4.37931
G1 X78.360 Y109.769 E4.51791
G1 X78.160 Y109.299 E4.53293
G1 X76.870 Y105.289 E4.65679
G1 X76.710 Y104.559 E4.67877
G1 X76.270 Y100.379 E4.80236
G1 X76.260 Y99.869 E4.81736
G1 X76.710 Y95.429 E4.94859
G1 X76.870 Y94.699 E4.97056
G1 X78.160 Y90.689 E5.09443
G1 X78.360 Y90.219 E5.10945
G1 X80.590 Y86.349 E5.24079
G1 X80.870 Y85.939 E5.25539
G1 X83.617 Y82.857 E5.37678
G1 F1800.000 E4.37678
G92 E0
G1 X92.580 Y91.759 F7800.000
G1 F1800.000 E1.00000
G1 X94.456 Y90.397 F540.000 E1.06817
G1 X96.573 Y89.454 E1.13634
G1 X98.841 Y88.972 E1.20450
G1 X101.159 Y88.972 E1.27267
G1 X103.427 Y89.454 E1.34084
G1 X105.544 Y90.397 E1.40901
G1 X107.420 Y91.759 E1.47718
G1 X108.971 Y93.482 E1.54534
G1 X110.130 Y95.490 E1.61351
G1 X110.847 Y97.694 E1.68168
G1 X111.089 Y100.000 E1.74985
G1 X110.847 Y102.306 E1.81802
G1 X110.130 Y104.510 E1.88619
G1 X108.971 Y106.518 E1.95435
G1 X107.420 Y108.241 E2.02252
G1 X105.544 Y109.603 E2.09069
G1 X103.427 Y110.546 E2.15886
G1 X101.159 Y111.028 E2.22703
G1 X98.841 Y111.028 E2.29519
G1 X96.573 Y110.546 E2.36336
G1 X94.456 Y109.603 E2.43153
G1 X92.580 Y108.241 E2.49970
G1 X91.029 Y106.518 E2.56787
G1 X89.870 Y104.510 E2.63603
G1 X89.153 Y102.306 E2.70420
G1 X88.911 Y100.000 E2.77237
G1 X89.153 Y97.694 E2.84054
G1 X89.870 Y95.490 E2.90871
G1 X91.029 Y93.482 E2.97688
G1 X92.527 Y91.818 E3.04273
G1 X92.233 Y91.374 F7800.000
G1 X94.197 Y89.948 F540.000 E3.11408
G1 X96.413 Y88.961 E3.18543
G1 X98.787 Y88.457 E3.25678
G1 X101.213 Y88.457 E3.32814
G1 X103.587 Y88.961 E3.39949
G1 X105.803 Y89.948 E3.47084
G1 X107.767 Y91.374 E3.54220
G1 X109.390 Y93.178 E3.61355
G1 X110.603 Y95.279 E3.68490
G1 X111.353 Y97.587 E3.75625
G1 X111.607 Y100.000 E3.82761
G1 X111.353 Y102.413 E3.89896
G1 X110.603 Y104.721 E3.97031
G1 X109.390 Y106.822 E4.04166
G1 X107.767 Y108.626 E4.11302
G1 X105.803 Y110.052 E4.18437
G1 X103.587 Y111.039 E4.25572
G1 X101.213 Y111.543 E4.32707
G1 X98.787 Y111.543 E4.39843
G1 X96.413 Y111.039 E4.46978
G1 X94.197 Y110.052 E4.54113
G1 X92.233 Y108.626 E4.61248
G1 X90.610 Y106.822 E4.68384
G1 X89.397 Y104.721 E4.75519
G1 X88.647 Y102.413 E4.82654
G1 X88.393 Y100.000 E4.89789
G1 X88.647 Y97.587 E4.96925
G1 X89.397 Y95.279 E5.04060
G1 X90.610 Y93.178 E5.11195
G1 X92.181 Y91.433 E5.18099
G1 X91.887 Y90.989 F7800.000
G1 X93.938 Y89.499 F540.000 E5.25553
G1 X96.253 Y88.468 E5.33006
G1 X98.733 Y87.941 E5.40460
G1 X101.267 Y87.941 E5.47914
G1 X103.747 Y88.468 E5.55367
G1 X106.062 Y89.499 E5.62821
G1 X108.113 Y90.989 E5.70275
G1 X109.809 Y92.873 E5.77729
G1 X111.077 Y95.068 E5.85182
G1 X111.860 Y97.479 E5.92636
G1 X112.125 Y100.000 E6.00090
G1 X111.860 Y102.521 E6.07543
G1 X111.077 Y104.932 E6.14997
G1 X109.809 Y107.127 E6.22451
G1 X108.113 Y109.011 E6.29904
G1 X106.062 Y110.501 E6.37358
G1 X103.747 Y111.532 E6.44812
G1 X101.267 Y112.059 E6.52266
G1 X98.733 Y112.059 E6.59719
G1 X96.253 Y111.532 E6.67173
G1 X93.938 Y110.501 E6.74627
G1 X91.887 Y109.011 E6.82080
G1 X90.191 Y107.127 E6.89534
G1 X88.923 Y104.932 E6.96988
G1 X88.140 Y102.521 E7.04442
G1 X87.875 Y100.000 E7.11895
G1 X88.140 Y97.479 E7.19349
G1 X88.923 Y95.068 E7.26803
G1 X90.191 Y92.873 E7.34256
G1 X91.834 Y91.048 E7.41478
G1 F1800.000 E6.41478
G92 E0
G1 X88.825 Y87.589 F7800.000
G1 F1800.000 E1.00000
G1 X91.650 Y85.537 F540.000 E1.10266
G1 X94.839 Y84.117 E1.20532
G1 X98.254 Y83.391 E1.30799
G1 X101.746 Y83.391 E1.41065
G1 X105.161 Y84.117 E1.51331
G1 X108.350 Y85.537 E1.61597
G1 X111.175 Y87.589 E1.71863
G1 X113.511 Y90.184 E1.82129
G1 X115.256 Y93.208 E1.92395
G1 X116.335 Y96.528 E2.02662
G1 X116.700 Y100.000 E2.12928
G1 X116.335 Y103.472 E2.23194
G1 X115.256 Y106.792 E2.33460
G1 X113.511 Y109.816 E2.43726
G1 X111.175 Y112.411 E2.53992
G1 X108.350 Y114.463 E2.64258
G1 X105.161 Y115.883 E2.74525
G1 X101.746 Y116.609 E2.84791
G1 X98.254 Y116.609 E2.95057
G1 X94.839 Y115.883 E3.05323
G1 X91.650 Y114.463 E3.15589
G1 X88.825 Y112.411 E3.25855
G1 X86.489 Y109.816 E3.36122
G1 X84.744 Y106.792 E3.46388
G1 X83.665 Y103.472 E3.56654
G1 X83.300 Y100.000 E3.66920
G1 X83.665 Y96.528 E3.77186
G1 X84.744 Y93.208 E3.87452
G1 X86.489 Y90.184 E3.97718
G1 X88.773 Y87.648 E4.07753
G1 X88.479 Y87.205 F7800.000
G1 X91.391 Y85.089 F540.000 E4.18338
G1 X94.679 Y83.625 E4.28922
G1 X98.200 Y82.876 E4.39507
G1 X101.800 Y82.876 E4.50091
G1 X105.321 Y83.625 E4.60676
G1 X108.609 Y85.089 E4.71261
G1 X111.521 Y87.205 E4.81845
G1 X113.930 Y89.880 E4.92430
G1 X115.729 Y92.997 E5.03014
G1 X116.842 Y96.420 E5.13599
G1 X117.218 Y100.000 E5.24184
G1 X116.842 Y103.580 E5.34768
G1 X115.729 Y107.003 E5.45353
G1 X113.930 Y110.120 E5.55937
G1 X111.521 Y112.795 E5.66522
G1 X108.609 Y114.911 E5.77107
G1 X105.321 Y116.375 E5.87691
G1 X101.800 Y117.124 E5.98276
G1 X98.200 Y117.124 E6.08860
G1 X94.679 Y116.375 E6.19445
G1 X91.391 Y114.911 E6.30029
G1 X88.479 Y112.795 E6.40614
G1 X86.070 Y110.120 E6.51199
G1 X84.271 Y107.003 E6.61783
G1 X83.158 Y103.580 E6.72368
G1 X82.782 Y100.000 E6.82952
G1 X83.158 Y96.420 E6.93537
G1 X84.271 Y92.997 E7.04122
G1 X86.070 Y89.880 E7.14706
G1 X88.426 Y87.263 E7.25059
G1 X88.132 Y86.820 F7800.000
G1 X91.132 Y84.640 F540.000 E7.35962
G1 X94.519 Y83.132 E7.46865
G1 X98.146 Y82.361 E7.57768
G1 X101.854 Y82.361 E7.68671
G1 X105.481 Y83.132 E7.79575
G1 X108.868 Y84.640 E7.90477
G1 X111.868 Y86.820 E8.01381
G1 X114.349 Y89.575 E8.12284
G1 X116.203 Y92.786 E8.23187
G1 X117.349 Y96.312 E8.34090
G1 X117.736 Y100.000 E8.44993
G1 X117.349 Y103.688 E8.55896
G1 X116.203 Y107.214 E8.66799
G1 X114.349 Y110.425 E8.77702
G1 X111.868 Y113.180 E8.88605
G1 X108.868 Y115.360 E8.99508
G1 X105.481 Y116.868 E9.10411
G1 X101.854 Y117.639 E9.21314
G1 X98.146 Y117.639 E9.32217
G1 X94.519 Y116.868 E9.43120
G1 X91.132 Y115.360 E9.54023
G1 X88.132 Y113.180 E9.64926
G1 X85.651 Y110.425 E9.75829
G1 X83.797 Y107.214 E9.86732
G1 X82.651 Y103.688 E9.97635
G1 X82.264 Y100.000 E10.08538
G1 X82.651 Y96.312 E10.19441
G1 X83.797 Y92.786 E10.30345
G1 X85.651 Y89.575 E10.41247
G1 X88.080 Y86.878 E10.51919
G1 X88.978 Y87.876 F7800.000
G1 X91.785 Y90.683 F1080.000 E10.63739
G1 X91.419 Y91.052 F7800.000
G1 X88.630 Y88.263 F1080.000 E10.75485
G1 X88.282 Y88.649 F7800.000
G1 X91.071 Y91.439 F1080.000 E10.87232
G1 X90.723 Y91.825 F7800.000
G1 X87.934 Y89.036 F1080.000 E10.98978
G1 X87.586 Y89.422 F7800.000
G1 X90.375 Y92.212 F1080.000 E11.10724
G1 X90.027 Y92.598 F7800.000
G1 X87.238 Y89.809 F1080.000 E11.22470
G1 X86.890 Y90.195 F7800.000
G1 X89.734 Y93.039 F1080.000 E11.34447
G1 X89.465 Y93.505 F7800.000
G1 X86.592 Y90.632 F1080.000 E11.46549
G1 X86.323 Y91.097 F7800.000
G1 X89.196 Y93.971 F1080.000 E11.58650
G1 X88.927 Y94.436 F7800.000
G1 X86.054 Y91.563 F1080.000 E11.70752
G1 X85.785 Y92.029 F7800.000
G1 X88.659 Y94.902 F1080.000 E11.82854
G1 X88.459 Y95.437 F7800.000
G1 X85.516 Y92.494 F1080.000 E11.95245
G1 X85.247 Y92.960 F7800.000
G1 X88.279 Y95.991 F1080.000 E12.08010
G1 X88.098 Y96.545 F7800.000
G1 X85.008 Y93.455 F1080.000 E12.21024
G1 X84.828 Y94.010 F7800.000
G1 X87.918 Y97.100 F1080.000 E12.34038
G1 X87.765 Y97.681 F7800.000
G1 X84.648 Y94.564 F1080.000 E12.47164
G1 X84.468 Y95.118 F7800.000
G1 X87.695 Y98.346 F1080.000 E12.60755
G1 X87.625 Y99.010 F7800.000
G1 X84.288 Y95.673 F1080.000 E12.74811
G1 X84.108 Y96.227 F7800.000
G1 X87.555 Y99.675 F1080.000 E12.89330
G1 X87.530 Y100.385 F7800.000
G1 X83.986 Y96.840 F1080.000 E13.04257
G1 X83.916 Y97.505 F7800.000
G1 X87.617 Y101.205 F1080.000 E13.19841
G1 X87.703 Y102.026 F7800.000
G1 X83.846 Y98.169 F1080.000 E13.36083
G1 X83.776 Y98.834 F7800.000
G1 X87.812 Y102.869 F1080.000 E13.53077
G1 X88.165 Y103.958 F7800.000
G1 X83.707 Y99.499 F1080.000 E13.71855
G1 X83.710 Y100.237 F7800.000
G1 X88.519 Y105.046 F1080.000 E13.92107
G1 X89.376 Y106.637 F7800.000
G1 X83.796 Y101.058 F1080.000 E14.15605
G1 X83.882 Y101.878 F7800.000
G1 X98.189 Y116.185 F1080.000 E14.75856
G1 X98.981 Y116.242 F7800.000
G1 X93.547 Y110.808 F1080.000 E14.98739
G1 X94.871 Y111.398 F7800.000
G1 X99.715 Y116.242 F1080.000 E15.19140
G1 X100.450 Y116.242 F7800.000
G1 X96.121 Y111.913 F1080.000 E15.37370
G1 X97.054 Y112.111 F7800.000
G1 X101.184 Y116.242 F1080.000 E15.54765
G1 X101.905 Y116.228 F7800.000
G1 X97.987 Y112.310 F1080.000 E15.71267
G1 X98.837 Y112.425 F7800.000
G1 X102.511 Y116.099 F1080.000 E15.86739
G1 X103.116 Y115.971 F7800.000
G1 X99.571 Y112.425 F1080.000 E16.01669
G1 X100.306 Y112.425 F7800.000
G1 X103.722 Y115.842 F1080.000 E16.16058
G1 X104.328 Y115.713 F7800.000
G1 X101.040 Y112.425 F1080.000 E16.29904
G1 X101.669 Y112.320 F7800.000
G1 X104.934 Y115.584 F1080.000 E16.43651
G1 X105.477 Y115.393 F7800.000
G1 X102.275 Y112.191 F1080.000 E16.57135
G1 X102.881 Y112.062 F7800.000
G1 X105.985 Y115.166 F1080.000 E16.70207
G1 X106.493 Y114.940 F7800.000
G1 X103.486 Y111.933 F1080.000 E16.82870
G1 X104.039 Y111.751 F7800.000
G1 X107.001 Y114.714 F1080.000 E16.95347
G1 X107.510 Y114.488 F7800.000
G1 X104.547 Y111.525 F1080.000 E17.07825
G1 X105.055 Y111.298 F7800.000
G1 X108.018 Y114.261 F1080.000 E17.20302
G1 X108.479 Y113.988 F7800.000
G1 X105.563 Y111.072 F1080.000 E17.32584
G1 X106.071 Y110.846 F7800.000
G1 X108.905 Y113.679 F1080.000 E17.44516
G1 X109.330 Y113.370 F7800.000
G1 X106.513 Y110.553 F1080.000 E17.56378
G1 X106.939 Y110.244 F7800.000
G1 X109.756 Y113.061 F1080.000 E17.68241
G1 X110.181 Y112.752 F7800.000
G1 X107.364 Y109.935 F1080.000 E17.80103
G1 X107.790 Y109.626 F7800.000
G1 X110.607 Y112.443 F1080.000 E17.91966
G1 X111.022 Y112.124 F7800.000
G1 X108.215 Y109.317 F1080.000 E18.03786
G1 X108.581 Y108.948 F7800.000
G1 X111.370 Y111.737 F1080.000 E18.15533
G1 X111.718 Y111.351 F7800.000
G1 X108.929 Y108.561 F1080.000 E18.27279
G1 X109.277 Y108.175 F7800.000
G1 X112.066 Y110.964 F1080.000 E18.39025
G1 X112.414 Y110.578 F7800.000
G1 X109.625 Y107.788 F1080.000 E18.50771
G1 X109.973 Y107.402 F7800.000
G1 X112.762 Y110.191 F1080.000 E18.62517
G1 X113.110 Y109.805 F7800.000
G1 X110.266 Y106.961 F1080.000 E18.74494
G1 X110.535 Y106.495 F7800.000
G1 X113.408 Y109.369 F1080.000 E18.86596
G1 X113.677 Y108.903 F7800.000
G1 X110.804 Y106.029 F1080.000 E18.98697
G1 X111.072 Y105.564 F7800.000
G1 X113.946 Y108.437 F1080.000 E19.10799
G1 X114.215 Y107.971 F7800.000
G1 X111.341 Y105.098 F1080.000 E19.22901
G1 X111.541 Y104.563 F7800.000
G1 X114.484 Y107.506 F1080.000 E19.35292
G1 X114.753 Y107.040 F7800.000
G1 X111.722 Y104.009 F1080.000 E19.48057
G1 X111.902 Y103.455 F7800.000
G1 X114.992 Y106.545 F1080.000 E19.61071
G1 X115.172 Y105.990 F7800.000
G1 X112.082 Y102.900 F1080.000 E19.74085
G1 X112.235 Y102.319 F7800.000
G1 X115.352 Y105.436 F1080.000 E19.87211
G1 X115.532 Y104.882 F7800.000
G1 X112.305 Y101.654 F1080.000 E20.00802
G1 X112.375 Y100.990 F7800.000
G1 X115.712 Y104.327 F1080.000 E20.14857
G1 X115.892 Y103.773 F7800.000
G1 X112.445 Y100.325 F1080.000 E20.29377
G1 X112.470 Y99.616 F7800.000
G1 X116.014 Y103.160 F1080.000 E20.44304
G1 X116.084 Y102.495 F7800.000
G1 X112.383 Y98.795 F1080.000 E20.59888
G1 X112.297 Y97.974 F7800.000
G1 X116.154 Y101.830 F1080.000 E20.76129
G1 X116.224 Y101.166 F7800.000
G1 X112.188 Y97.130 F1080.000 E20.93124
G1 X111.835 Y96.042 F7800.000
G1 X116.293 Y100.501 F1080.000 E21.11901
G1 X116.290 Y99.763 F7800.000
G1 X111.481 Y94.954 F1080.000 E21.32153
G1 X110.624 Y93.363 F7800.000
G1 X116.204 Y98.942 F1080.000 E21.55651
G1 X116.117 Y98.122 F7800.000
G1 X101.811 Y83.815 F1080.000 E22.15902
G1 X101.019 Y83.758 F7800.000
G1 X106.453 Y89.192 F1080.000 E22.38785
G1 X105.129 Y88.602 F7800.000
G1 X100.285 Y83.758 F1080.000 E22.59186
G1 X99.550 Y83.758 F7800.000
G1 X103.879 Y88.087 F1080.000 E22.77416
G1 X102.946 Y87.889 F7800.000
G1 X98.816 Y83.758 F1080.000 E22.94811
G1 X98.095 Y83.772 F7800.000
G1 X102.013 Y87.690 F1080.000 E23.11312
G1 X101.163 Y87.575 F7800.000
G1 X97.489 Y83.901 F1080.000 E23.26785
G1 X96.884 Y84.029 F7800.000
G1 X100.429 Y87.575 F1080.000 E23.41716
G1 X99.694 Y87.575 F7800.000
G1 X96.278 Y84.158 F1080.000 E23.56104
G1 X95.672 Y84.287 F7800.000
G1 X98.960 Y87.575 F1080.000 E23.69949
G1 X98.331 Y87.680 F7800.000
G1 X95.066 Y84.416 F1080.000 E23.83697
G1 X94.523 Y84.607 F7800.000
G1 X97.725 Y87.809 F1080.000 E23.97180
G1 X97.119 Y87.938 F7800.000
G1 X94.015 Y84.834 F1080.000 E24.10253
G1 X93.507 Y85.060 F7800.000
G1 X96.514 Y88.067 F1080.000 E24.22915
G1 X95.962 Y88.249 F7800.000
G1 X92.999 Y85.286 F1080.000 E24.35393
G1 X92.490 Y85.512 F7800.000
G1 X95.453 Y88.475 F1080.000 E24.47871
G1 X94.945 Y88.702 F7800.000
G1 X91.982 Y85.739 F1080.000 E24.60348
G1 X91.521 Y86.012 F7800.000
G1 X94.437 Y88.928 F1080.000 E24.72629
G1 X93.929 Y89.154 F7800.000
G1 X91.095 Y86.321 F1080.000 E24.84562
G1 X90.670 Y86.630 F7800.000
G1 X93.487 Y89.447 F1080.000 E24.96424
G1 X93.061 Y89.756 F7800.000
G1 X90.244 Y86.939 F1080.000 E25.08287
G1 X89.819 Y87.248 F7800.000
G1 X92.636 Y90.065 F1080.000 E25.20149
G1 X92.210 Y90.374 F7800.000
G1 X89.394 Y87.557 F1080.000 E25.32012
G1 F1800.000 E24.32012
G92 E0
G1 X102.744 Y84.013 F7800.000
G1 F1800.000 E1.00000
G1 X116.031 Y97.301 F1080.000 E1.55959
G1 X115.846 Y96.381 F7800.000
G1 X103.677 Y84.212 F1080.000 E2.07209
G1 X104.609 Y84.410 F7800.000
G1 X115.492 Y95.293 F1080.000 E2.53042
G1 X115.139 Y94.205 F7800.000
G1 X105.832 Y84.898 F1080.000 E2.92239
G1 X107.155 Y85.487 F7800.000
G1 X114.517 Y92.848 F1080.000 E3.23240
G1 X113.513 Y91.110 F7800.000
G1 X109.032 Y86.629 F1080.000 E3.42113
G1 F1800.000 E2.42113
G92 E0
G1 X83.969 Y102.699 F7800.000
G1 F1800.000 E1.00000
G1 X97.256 Y115.987 F1080.000 E1.55959
G1 X96.324 Y115.788 F7800.000
G1 X84.154 Y103.619 F1080.000 E2.07209
G1 X84.508 Y104.707 F7800.000
G1 X95.391 Y115.590 F1080.000 E2.53042
G1 X94.168 Y115.102 F7800.000
G1 X84.861 Y105.795 F1080.000 E2.92239
G1 X85.483 Y107.152 F7800.000
G1 X92.844 Y114.513 F1080.000 E3.23240
G1 X90.968 Y113.371 F7800.000
G1 X86.487 Y108.890 F1080.000 E3.42112
G1 F1800.000 E2.42112
